modules/MultiLanguage/images/en.svg

<svg baseProfile="basic" xmlns="http://www.w3.org/2000/svg" xmlns:xlink="http://www.w3.org/1999/xlink" width="50" height="30" viewBox="0 0 50 30"><defs><path id="a" d="M0 0h50v30h-50z"/></defs><clipPath id="b"><use xlink:href="#a" overflow="visible"/></clipPath><path clip-path="url(#b)" fill="#fff" d="M0 0h50v30h-50z"/><defs><path id="c" d="M0 0h50v30h-50z"/></defs><clipPath id="d"><use xlink:href="#c" overflow="visible"/></clipPath><path clip-path="url(#d)" fill="#BD0935" d="M33.48 10.847l16.52-9.512v-1.335h-1.14l-18.839 10.847z"/><defs><path id="e" d="M0 0h50v30h-50z"/></defs><clipPath id="f"><use xlink:href="#e" overflow="visible"/></clipPath><path clip-path="url(#f)" fill="#BD0935" d="M32.698 19.757l17.302 9.956v-1.989l-13.845-7.967z"/><defs><path id="g" d="M0 0h50v30h-50z"/></defs><clipPath id="h"><use xlink:href="#g" overflow="visible"/></clipPath><path clip-path="url(#h)" fill="#BD0935" d="M0 2.286l14.799 8.561h3.458l-18.257-10.555z"/><defs><path id="i" d="M0 0h50v30h-50z"/></defs><clipPath id="j"><use xlink:href="#i" overflow="visible"/></clipPath><path clip-path="url(#j)" fill="#BD0935" d="M17.475 19.757l-17.475 10.07v.173h3.155l17.779-10.243z"/><defs><path id="k" d="M0 0h50v30h-50z"/></defs><clipPath id="l"><use xlink:href="#k" overflow="visible"/></clipPath><path clip-path="url(#l)" fill="#222974" d="M46.58 0h-17.508v10.086z"/><defs><path id="m" d="M0 0h50v30h-50z"/></defs><clipPath id="n"><use xlink:href="#m" overflow="visible"/></clipPath><path clip-path="url(#n)" fill="#222974" d="M21.342 0h-17.436l17.436 10.086z"/><defs><path id="o" d="M0 0h50v30h-50z"/></defs><clipPath id="p"><use xlink:href="#o" overflow="visible"/></clipPath><path clip-path="url(#p)" fill="#222974" d="M50 10.847v-6.882l-11.875 6.882z"/><defs><path id="q" d="M0 0h50v30h-50z"/></defs><clipPath id="r"><use xlink:href="#q" overflow="visible"/></clipPath><path clip-path="url(#r)" fill="#222974" d="M50 26.564v-6.807h-11.875z"/><defs><path id="s" d="M0 0h50v30h-50z"/></defs><clipPath id="t"><use xlink:href="#s" overflow="visible"/></clipPath><path clip-path="url(#t)" fill="#222974" d="M4.895 30h16.447v-9.482z"/><defs><path id="u" d="M0 0h50v30h-50z"/></defs><clipPath id="v"><use xlink:href="#u" overflow="visible"/></clipPath><path clip-path="url(#v)" fill="#222974" d="M29.072 30h16.499l-16.499-9.482z"/><defs><path id="w" d="M0 0h50v30h-50z"/></defs><clipPath id="x"><use xlink:href="#w" overflow="visible"/></clipPath><path clip-path="url(#x)" fill="#222974" d="M0 19.757v7.114l12.29-7.114z"/><defs><path id="y" d="M0 0h50v30h-50z"/></defs><clipPath id="z"><use xlink:href="#y" overflow="visible"/></clipPath><path clip-path="url(#z)" fill="#222974" d="M0 10.847h12.29l-12.29-7.125z"/><defs><path id="A" d="M0 0h50v30h-50z"/></defs><clipPath id="B"><use xlink:href="#A" overflow="visible"/></clipPath><path clip-path="url(#B)" fill="#BD0935" d="M22.888 0v12.63h-22.888v5.345h22.888v12.025h4.639v-12.025h22.473v-5.345h-22.473v-12.63z"/></svg>

<svg baseProfile="basic" xmlns="http://www.w3.org/2000/svg" xmlns:xlink="http://www.w3.org/1999/xlink" width="50" height="30" viewBox="0 0 50 30"><defs><path id="a" d="M0 0h50v30H0z"/></defs><clipPath id="b"><use xlink:href="#a" overflow="visible"/></clipPath><path clip-path="url(#b)" fill="#fff" d="M0 0h50v30H0z"/><defs><path id="c" d="M0 0h50v30H0z"/></defs><clipPath id="d"><use xlink:href="#c" overflow="visible"/></clipPath><path clip-path="url(#d)" fill="#BD0935" d="M33.48 10.847L50 1.335V0h-1.14L30.02 10.847z"/><defs><path id="e" d="M0 0h50v30H0z"/></defs><clipPath id="f"><use xlink:href="#e" overflow="visible"/></clipPath><path clip-path="url(#f)" fill="#BD0935" d="M32.698 19.757L50 29.713v-1.99l-13.845-7.966z"/><defs><path id="g" d="M0 0h50v30H0z"/></defs><clipPath id="h"><use xlink:href="#g" overflow="visible"/></clipPath><path clip-path="url(#h)" fill="#BD0935" d="M0 2.286l14.8 8.56h3.457L0 .293z"/><defs><path id="i" d="M0 0h50v30H0z"/></defs><clipPath id="j"><use xlink:href="#i" overflow="visible"/></clipPath><path clip-path="url(#j)" fill="#BD0935" d="M17.475 19.757L0 29.827V30h3.155l17.78-10.243z"/><defs><path id="k" d="M0 0h50v30H0z"/></defs><clipPath id="l"><use xlink:href="#k" overflow="visible"/></clipPath><path clip-path="url(#l)" fill="#222974" d="M46.58 0H29.072v10.086z"/><defs><path id="m" d="M0 0h50v30H0z"/></defs><clipPath id="n"><use xlink:href="#m" overflow="visible"/></clipPath><path clip-path="url(#n)" fill="#222974" d="M21.342 0H3.906l17.436 10.086z"/><defs><path id="o" d="M0 0h50v30H0z"/></defs><clipPath id="p"><use xlink:href="#o" overflow="visible"/></clipPath><path clip-path="url(#p)" fill="#222974" d="M50 10.847V3.965l-11.875 6.882z"/><defs><path id="q" d="M0 0h50v30H0z"/></defs><clipPath id="r"><use xlink:href="#q" overflow="visible"/></clipPath><path clip-path="url(#r)" fill="#222974" d="M50 26.564v-6.807H38.125z"/><defs><path id="s" d="M0 0h50v30H0z"/></defs><clipPath id="t"><use xlink:href="#s" overflow="visible"/></clipPath><path clip-path="url(#t)" fill="#222974" d="M4.895 30h16.447v-9.482z"/><defs><path id="u" d="M0 0h50v30H0z"/></defs><clipPath id="v"><use xlink:href="#u" overflow="visible"/></clipPath><path clip-path="url(#v)" fill="#222974" d="M29.072 30h16.5l-16.5-9.482z"/><defs><path id="w" d="M0 0h50v30H0z"/></defs><clipPath id="x"><use xlink:href="#w" overflow="visible"/></clipPath><path clip-path="url(#x)" fill="#222974" d="M0 19.757v7.114l12.29-7.113z"/><defs><path id="y" d="M0 0h50v30H0z"/></defs><clipPath id="z"><use xlink:href="#y" overflow="visible"/></clipPath><path clip-path="url(#z)" fill="#222974" d="M0 10.847h12.29L0 3.722z"/><defs><path id="A" d="M0 0h50v30H0z"/></defs><clipPath id="B"><use xlink:href="#A" overflow="visible"/></clipPath><path clip-path="url(#B)" fill="#BD0935" d="M22.888 0v12.63H0v5.345h22.888V30h4.64V17.975H50V12.63H27.527V0z"/></svg>
